X:0464
M:C
L:1/8
Q:1/2=100
K:G
d|G/G/G g>B A>Bc>e   |G/G/G g>B G/G/G g>B|G/G/G g>B A>Bc>e|dcBA GABd|
  G/G/G g>B ABce     |G/G/G g2  fe/d/ g2 |fe/d/ g>B A>Bc>e|dcBA GAB:|

